!!!OTL: Der Jaeger im Tannenholz
!!!OTL-incipit:Ein Jaeger wollte jagen,
!!!ARE: Europa, Mitteleuropa, Deutschland (BRD), Rheinland - Pfalz, Unterwesterwald,
!!    Eitelborn
!!!YOR: 7, S. 181
!!    1927 aufgezeichnet
!!!SCT: Q0151D
!!!TXL: @@DE
!!!YEM: Copyright 1995, estate of Helmut Schaffrath.
**kern	**text
*ICvox	*
*M4/4	*
*met(c)	*
*k[f#]	*
*G:	*
!LO:TX:a:t=Jäger im Tannenholʒ 209	!
{4d	1._Ein
=1	=1
4.g	Jä-
8d	-ger
4d	woll-
4g	-te
=2	=2
4e	ja-
4d	-gen,
4r}	.
{4g	ja
=3	=3
4.a	ja-
8g	-gen
4f#	ganz
4e	al-
=4	=4
(<4d	-lein,
4b	.
4g)}	.
{4d	Ein
=5	=5
4.g	Jä-
8d	-ger
4d	woll-
4g	-te
=6	=6
4e	ja-
4d	-gen,
4r}	.
{4g	ja
=7	=7
4.a	ja-
8g	-gen
4f#	ganz
4e	al-
=8	=8
(<4d	-lein,
4b	.
4g)}	.
{8gL	da
8aJ	be-
=9	=9
4b	-geg-
8bL	-net
8bJ	ihm
4b	auf
4b	der
=10	=10
(4b	Rei-
4dd)	.
4b}	-se
{8bL	ein
8ddJ	.
=11	=11
4cc	Mäd-
4cc	-chen,
4a	das
4dd	war
=12	=12
2.b}	fein.
{8gL	da
8aJ	be-
=13	=13
4b	-geg-
8bL	-net
8bJ	ihm
4b	auf
4b	der
=14	=14
(4b	Rei-
4dd)	.
4b}	-se
{8bL	ein
8ddJ	.
=15	=15
4cc	Mäd-
4cc	-chen,
4a	das
4dd	war
=16	=16
2.b}	fein.
==	==
!!!AGN: Ballade, abgewiesener Freier, Abschied
!!!ONB: ESAC (Essen Associative Code) Database: BALLADE
!!!AMT: simple quadruple
!!!AIN: vox
!!!EED: Helmut Schaffrath
!!!EEV: 1.0
!!!source: Deutsche Volkslieder mit ihren Melodien Balladen. Herausgegeben vom Deutschen Volksliedarchiv. Siebenterer Band. Freiburg/Breisgau 1982.
!!!page: 181
!!!ENC: Anna Maria Matuszewska
!!!EEV: 2025/03/07
*-	*-
